packages/ui-icons/svg/Solid/facebook-boxed.svg

<svg viewBox="0 0 1920 1920" version="1.1" xmlns="http://www.w3.org/2000/svg">
    <path d="M1168.73678,487.896592 C1213.40893,446.495887 1282.56052,451.008226 1287.6369,451.233843 L1576.9906,451.121034 L1583.30787,33.6169213 L1539.651,22.9001175 C1511.6745,16.0188014 1426.05288,0 1237.32432,0 C901.26792,0 675.425382,235.20564 675.425382,585.137485 L675.425382,679.106933 L337,679.106933 L337,1130.34078 L675.425382,1130.34078 L675.425382,1920 L1126.65922,1920 L1126.65922,1130.34078 L1483.35958,1130.34078 L1545.40423,679.106933 L1126.65922,679.106933 L1126.65922,609.955347 C1126.65922,555.017626 1140.87309,513.842538 1168.73678,487.896592" stroke="none" stroke-width="1" fill-rule="evenodd"/>
</svg>

<svg viewBox="0 0 1920 1920" version="1.1" xmlns="http://www.w3.org/2000/svg">
    <path d="M1168.737 487.897c44.672-41.401 113.824-36.889 118.9-36.663l289.354-.113 6.317-417.504L1539.65 22.9C1511.675 16.02 1426.053 0 1237.324 0 901.268 0 675.425 235.206 675.425 585.137v93.97H337v451.234h338.425V1920h451.234v-789.66h356.7l62.045-451.233H1126.66v-69.152c0-54.937 14.214-96.112 42.078-122.058" stroke="none" stroke-width="1" fill-rule="evenodd"/>
</svg>
